X:60
T:French Dance
O:No 60 Wm Clarke of Feltwell MS  1858
N:aka Oats and Beans
N:Unnecessary rest at start left out.
I:abc2nwc
M:6/8
L:1/8
K:C
e2e e2e|dcd c3|B2c d2B|c2d e2z|
e2e e2e|dcd cde|f2e d2c|BAB c2z:|
|:d2d B2G|cde d3|d2d B2G|cde de^f|
g2g ^f2f|e2e d2d|c2c B2B|AGA G3:|
|:g2g g2g|fef e2z|d2e f2d|e2f g2z|
g2g g2g|fef efg|a2g f2e|dcd c3:|

